X: 330
T: Bilmem ki Safâ...
C: Leon Hancıyan
O: Turkey
F: http://compmusic.upf.edu/node/140
N: karcigar--sarki--turkaksagi--bilmem_ki_safa--leon_hanciyan
N: makam= karcigar
N: form= sarki
N: usul= turkaksagi = 5/8
M: 5/8
L: 1/16
K: C _2/4B _3/4e ^3/4f 
Q: 1/4=120
%%MIDI tuningsystem comma53
e3/2d/ce d2B2 G2 | fe dfe4dc  | defg a_bag gf | 
w:  ARANAĞME  |   |   | 
fe edd6  | fgab c'4 _ba | ag gfgf edc2  | 
w:   |   |   | 
Bcde gfed c2 | cB BAA4z2  | e3/2d/ce d2B2 G2 | 
w:   |   |  ARANAĞME  | 
fe dfe4dc  | defg a_bag gf | fe edd6  | 
w:   |   |   | 
fgab c'4 _ba | ag gfgf edc2  | Bcde gfed c2 | 
w:   |   |   | 
cB BAA4z2  | c3d {e}d6 | e2 {f}edd6  | edcB cdef dc | 
w:   |  Bil *  *  mem   |  ki  *  sa *  fâ   |  neş  | 
cB BAA6  | d3/2c/Bc d2e2 f2 | g2 a_bag fed2  | \
w:  e  *  bu  *  öm  |  rün   |   | 
aggf fgfe ed | 
w:  ne *  re *  sin  | 
d4c2 BA{B}A2  | c3d {e}d6 | e2 {f}edd6  | \
w:  de   SAZ  |  Bil *  *  mem   |  ki  *  sa *  fâ   | 
edcB cdef dc | 
w:  neş  | 
cB BAA6  | d3/2c/Bc d2e2 f2 | g2 a_bag fed2  | \
w:  e  *  bu  *  öm  |  rün   |   | 
aggf fgfe ed | 
w:  ne *  re *  sin  | 
d4de fga2  | g3a a6 | c'2 _bagf edc2  | \
w:  de   SAZ  |  Şâd_ *  ol  |  sa  gö *  nül   | 
d2{e}cB f2e2 d2 | 
w:  ba  | 
dc cBd2 c2B2  | c2{d}BA A6 | g4gf edcB  | \
w:  ri  *  bi *  raz   |  son   |  son   | 
_1/4eddc c2{d}B2 {c}BA | 
w:  ne *  fe *  sin  | 
A4de fga2  | g3a a6 | c'2 _bagf edc2  | \
w:  de   SAZ  |  Şâd_ *  ol  |  sa  gö *  nül   | 
d2{e}cB f2e2 d2 | 
w:  ba  | 
dc cBd2 c2B2  | c2{d}BA A6 | g4gf edcB  | \
w:  ri  *  bi *  raz   |  son   |  son   | 
_1/4eddc c2{d}B2 {c}BA | 
w:  ne *  fe *  sin  | 
A4AB cd=e2  | d3=e _2/4e4 d2 | d2 {f}edd6  | \
w:  de   SAZ  |  Hâ *  lâ   |  e *  lem_ *  i   | 
e3/2d/cB cdef dc | 
w:  yâ  | 
cB BAA6  | d3/2c/Bc d2e2 f2 | g2 a_bag fed2  | \
w:  re  *  te *  ham  |  mül   |   | 
aggf fgfe ed | 
w:  he *  ve *  sin  | 
d4de fga2  | g3a a6 | c'2 _bagf edc2  | \
w:  de   SAZ  |  Şâd_ *  ol  |  sa  gö *  nül   | 
d2{e}cB f2e2 d2 | 
w:  ba  | 
dc cBd2 c2B2  | c2{d}BA A6 | g4gf edcB  | \
w:  ri  *  bi *  raz   |  son   |  son   | 
_1/4eddc c2{d}B2 {c}BA | 
w:  ne *  fe *  sin  | 
A4de fga2  | g3a a6 | c'2 _bagf edc2  | \
w:  de   SAZ  |  Şâd_ *  ol  |  sa  gö *  nül   | 
d2{e}cB f2e2 d2 | 
w:  ba  | 
dc cBd2 c2B2  | c2{d}BA A6 | g4gf edcB  | \
w:  ri  *  bi *  raz   |  son   |  son   | 
_1/4eddc c2{d}B2 {c}BA | 
w:  ne *  fe *  sin  | 
A4|
w:  de    | 


